X: 3262
T: Guzzle Together.   a Jig.
%R: slip-jig
B: Niel Gow & Sons "Complete Repository" v.3 p.26 #2
Z: 2021 John Chambers <jc:trillian.mit.edu>
M: 9/8
L: 1/8
K: A
% - - - - - - - - - -
V: 1 staves=2
|:\
c2e- ece {f}e2A | c2e- ece T=g2B | c2e- ece ae=g | fdf ece T=g2B ::
a2a acA a2e | a2a acA T=g2B | a2a acA ae=g | fdf ecd T=g2B :|
% - - - - - - - - - -
V: 2 clef=bass middle=d
|:\
a3 a3 a3 | a3 a3 b3 | a3 a3 c'3 | d'3 c'3 b3 ::
a3 a3 a3 | a3 a3 b3 | a3 a3 c'3 | d'3 c'3 b3 :|


